packages/core/src/svgs/uni.svg

<svg width="24" height="24" viewBox="0 0 24 24" fill="none" xmlns="http://www.w3.org/2000/svg">
<g clip-path="url(#clip0_31_20184)">
<path d="M0 0H24V24H0V0Z" fill="url(#paint0_linear_31_20184)"/>
<path fill-rule="evenodd" clip-rule="evenodd" d="M8.76868 8.78592L8.77039 8.78721C8.90239 8.89864 9.00139 8.98178 9.06396 9.04049L9.10253 9.07821C9.11193 9.08771 9.1208 9.09773 9.1291 9.10821C9.26068 9.28135 9.21139 9.4365 8.98553 9.55821C8.85996 9.62592 8.60196 9.6945 8.47296 9.6945C8.32725 9.6945 8.27668 9.64092 8.27668 9.64092L8.24668 9.61564C8.17468 9.55692 8.09153 9.48921 7.70925 8.84549C7.43863 8.44694 7.1672 8.04894 6.89496 7.6515C6.79411 7.50154 6.69125 7.35296 6.58639 7.20578C6.55425 7.17749 6.55468 7.17835 7.64753 9.03407C7.7881 9.34178 7.72725 9.49435 7.69639 9.57192C7.68928 9.58648 7.68464 9.60213 7.68268 9.61821C7.68268 9.72964 7.65053 9.78878 7.50482 9.94307C7.26225 10.2002 7.15339 10.4891 7.07496 11.0874C6.98753 11.7572 6.74068 12.2308 6.05582 13.0408C5.6551 13.5152 5.58953 13.6022 5.48839 13.7934C5.3611 14.0338 5.32596 14.1688 5.31182 14.4726C5.29682 14.7941 5.32596 15.0019 5.42968 15.3092C5.51968 15.5779 5.61482 15.7558 5.8561 16.1106C6.06482 16.4175 6.18482 16.6455 6.18482 16.7346C6.18482 16.8054 6.19939 16.8058 6.52253 16.7364C7.2961 16.5705 7.92396 16.2791 8.27753 15.9221C8.4961 15.7005 8.54753 15.5784 8.54925 15.2754C8.5501 15.0769 8.54282 15.0354 8.48625 14.9214C8.39453 14.7358 8.22696 14.5815 7.85839 14.3428C7.37496 14.0286 7.16839 13.7766 7.11182 13.4295C7.06468 13.1445 7.1191 12.9435 7.3861 12.4121C7.66296 11.8618 7.73153 11.6269 7.77825 11.0724C7.80825 10.7141 7.84982 10.5726 7.95825 10.4595C8.07139 10.3408 8.17296 10.3009 8.45325 10.2645C8.9101 10.2054 9.20068 10.0931 9.43982 9.88435C9.64682 9.70264 9.73382 9.52821 9.7471 9.26507L9.75696 9.06578L9.64125 8.93764C9.22125 8.4735 5.16868 5.14307 5.14296 5.14307C5.13782 5.14307 5.27582 5.30721 5.44982 5.50778C7.00296 7.29707 8.1961 8.3025 8.76868 8.78592ZM6.4201 14.8365C6.46564 14.7596 6.47925 14.6679 6.45802 14.5811C6.4368 14.4942 6.38242 14.4192 6.30653 14.3719C6.15653 14.2776 5.92339 14.3218 5.92339 14.4448C5.92352 14.4573 5.92645 14.4696 5.93196 14.4808L5.93753 14.4906C5.94352 14.4989 5.95075 14.5061 5.95896 14.5121L5.97782 14.5254L5.99496 14.5339C6.0781 14.5751 6.0841 14.6205 6.01853 14.7139C5.9521 14.8082 5.95768 14.8918 6.03353 14.9479C6.1561 15.0392 6.32968 14.9891 6.42053 14.8365H6.4201Z" fill="#FF0A6F"/>
<path d="M9.12429 6.1166C9.10072 6.10974 9.12 6.10545 9.16843 6.0986C9.33729 6.07374 9.73629 6.10717 10.0106 6.16931C10.6521 6.31417 11.2354 6.68445 11.8581 7.34274L12.0236 7.5176L12.2601 7.4816C13.2574 7.32945 14.2719 7.45031 15.1209 7.82231C15.354 7.92474 15.7221 8.12831 15.768 8.1806C15.783 8.19731 15.8096 8.30488 15.828 8.41931C15.8906 8.81574 15.8593 9.1196 15.7316 9.34674C15.7151 9.37495 15.7006 9.40431 15.6883 9.4346L15.6797 9.45945C15.6664 9.5096 15.6754 9.54945 15.705 9.61502C15.7423 9.69945 15.8464 9.76202 15.9493 9.7616C16.1601 9.7616 16.3869 9.43802 16.4923 8.98802L16.5343 8.80888L16.617 8.89802C17.0704 9.38617 17.427 10.0517 17.4883 10.5253L17.5041 10.6487L17.4283 10.5365C17.2967 10.3436 17.1647 10.2116 16.9959 10.1057C16.6916 9.9146 16.3693 9.84945 15.5164 9.8066C14.7463 9.76802 14.3104 9.70588 13.8784 9.57217C13.1426 9.3446 12.7723 9.0416 11.8984 7.95388C11.5106 7.47045 11.2706 7.20345 11.0323 6.98831C10.4901 6.49888 9.95743 6.2426 9.27557 6.14231C9.22479 6.136 9.17431 6.12742 9.12429 6.1166Z" fill="#FF0A6F"/>
<path d="M15.9416 7.22114C15.9613 6.89714 16.0072 6.68372 16.1002 6.48829C16.1375 6.41114 16.1717 6.34814 16.1773 6.34814C16.1825 6.34814 16.1662 6.40514 16.1413 6.475C16.074 6.664 16.0625 6.92286 16.1092 7.22414C16.1687 7.60643 16.2022 7.66129 16.6277 8.074C16.827 8.26772 17.0597 8.512 17.1437 8.617L17.2967 8.80729L17.1437 8.67143C16.9565 8.50429 16.5262 8.17986 16.431 8.13314C16.4134 8.12337 16.3945 8.11615 16.3749 8.11172C16.3698 8.11078 16.3646 8.11078 16.3595 8.11172C16.3466 8.11472 16.3355 8.12372 16.3187 8.14C16.2823 8.17429 16.2746 8.22572 16.2695 8.46872C16.2617 8.84757 16.2073 9.09057 16.0757 9.334C16.005 9.46557 15.9939 9.43729 16.0577 9.289C16.1062 9.178 16.1109 9.12957 16.1105 8.76272C16.1096 8.02557 16.0175 7.84814 15.4766 7.54472C15.3137 7.45428 15.1463 7.37204 14.9752 7.29829C14.8363 7.23957 14.7262 7.18857 14.73 7.18472C14.7455 7.17014 15.2726 7.31629 15.4852 7.39386C15.8006 7.50914 15.8529 7.52414 15.891 7.51C15.9167 7.501 15.9296 7.42986 15.9416 7.22114ZM9.07503 6.655C9.02403 7.22414 9.25932 7.98529 9.63946 8.482C9.93389 8.86686 10.3903 9.16557 10.7276 9.19472C10.9483 9.21357 11.0147 9.14757 10.9149 9.00957C10.776 8.81757 10.6055 8.52143 10.5605 8.395C10.5082 8.22465 10.4631 8.05222 10.425 7.87814C10.2665 7.177 10.1109 6.904 9.75089 6.69657C9.61975 6.62114 9.33946 6.52214 9.17703 6.49386L9.09089 6.47886L9.07503 6.655ZM15.4809 12.1767C13.7049 11.4983 13.0796 10.9094 13.0796 9.91557C13.0796 9.76943 13.0847 9.64986 13.0912 9.64986C13.098 9.64986 13.1666 9.69786 13.2442 9.757C13.6042 10.0313 14.0075 10.1479 15.1239 10.3026C15.7805 10.3934 16.1503 10.4671 16.491 10.5743C17.5753 10.9154 18.246 11.6076 18.4059 12.5509C18.4522 12.8247 18.4247 13.3386 18.3497 13.6094C18.2897 13.8233 18.1085 14.2086 18.0605 14.2236C18.054 14.2253 18.0476 14.2154 18.0429 14.1979C18.0358 14.1701 18.0316 14.1416 18.0305 14.113C18.0125 13.759 17.8239 13.4144 17.5076 13.156C17.1476 12.8624 16.6633 12.6289 15.4809 12.1767ZM14.1485 12.1021C14.1733 12.1724 14.2119 12.3331 14.2342 12.4587C14.3765 13.2619 13.932 13.9111 13.0676 14.1627C13.0037 14.1792 12.9392 14.1935 12.8743 14.2056C12.7936 14.2211 12.7127 14.236 12.6317 14.2501L12.4723 14.2776L12.2666 14.3114C11.5603 14.4229 11.2449 14.5021 10.9282 14.647C10.7032 14.7499 10.431 14.9033 10.4477 14.9187C10.4499 14.9209 10.461 14.92 10.4782 14.9161C10.4996 14.9119 10.5296 14.9033 10.5613 14.893C10.9607 14.7597 11.4056 14.6907 12.081 14.6573C12.1783 14.653 12.2803 14.647 12.3763 14.6406L12.504 14.632L12.6335 14.6226L12.6913 14.6174L12.7586 14.6106C13.3603 14.5386 13.7777 14.3654 14.1017 14.0521C14.2826 13.8777 14.3902 13.7153 14.4767 13.4864C14.5316 13.3407 14.5389 13.2871 14.5397 13.0296C14.5397 12.7673 14.5333 12.7193 14.4737 12.5581C14.3957 12.3464 14.304 12.1879 14.1875 12.0636L14.103 11.974L14.1485 12.1021Z" fill="#FF0A6F"/>
<path d="M15.048 13.8303C14.8123 13.349 14.7583 12.8844 14.8873 12.4507C14.901 12.4044 14.9233 12.3667 14.937 12.3667C14.9561 12.3713 14.9744 12.379 14.991 12.3894C15.0125 12.4006 15.0365 12.4151 15.0605 12.4301C15.1693 12.4996 15.3875 12.6166 15.9682 12.917C16.6933 13.2924 17.1065 13.5826 17.3876 13.9147C17.6336 14.2053 17.7862 14.5361 17.8595 14.9398C17.901 15.1683 17.8766 15.7186 17.8149 15.9487C17.6199 16.6747 17.1669 17.2447 16.5206 17.5773C16.4596 17.6108 16.3967 17.6406 16.332 17.6664C16.3295 17.6664 16.3303 17.66 16.3342 17.6484L16.3419 17.6261C16.3552 17.5918 16.3792 17.54 16.4083 17.4817C16.626 17.0501 16.6505 16.631 16.4863 16.1638C16.3856 15.878 16.1803 15.5296 15.7663 14.9398C15.2846 14.2541 15.1663 14.072 15.048 13.8303ZM10.6037 15.4091C9.85717 15.5244 9.03731 15.8994 8.37817 16.4274L8.18188 16.5847L8.35417 16.6104C9.25417 16.7433 9.49674 16.8616 10.1207 17.4718C10.4799 17.8233 10.6007 17.9013 10.899 17.9733C11.3362 18.0791 11.7677 17.8846 11.9156 17.5138C11.9816 17.3484 11.973 17.0746 11.8972 16.937C11.7167 16.6091 11.1909 16.5033 10.9372 16.7433C10.7255 16.9434 10.7872 17.2447 11.0503 17.2961C11.1103 17.3081 11.109 17.3056 11.0349 17.2738C10.9196 17.2246 10.8699 17.156 10.869 17.0467C10.8677 16.7913 11.1759 16.6473 11.463 16.7703C11.673 16.8603 11.7566 16.9777 11.7566 17.1838C11.7566 17.501 11.472 17.7406 11.1407 17.7011C10.9637 17.6801 10.7473 17.5726 10.6307 17.4483C10.3389 17.135 10.4529 16.6404 10.8609 16.4506C11.1712 16.3061 11.5839 16.3417 11.904 16.5406C12.2713 16.769 12.4282 16.9777 12.7445 17.6634C12.8477 17.8863 12.9802 18.1378 13.0397 18.2218C13.3397 18.6478 13.6989 18.857 14.1322 18.857C14.3705 18.857 14.5505 18.8154 14.7763 18.7083C14.9443 18.629 15.1822 18.4777 15.165 18.4614C15.1603 18.4571 15.0905 18.4773 15.0103 18.5073C14.5376 18.6821 14.0572 18.6701 13.7777 18.476C13.602 18.3538 13.4606 18.1108 13.3877 17.807C13.3749 17.7543 13.3333 17.522 13.2947 17.2901C13.1979 16.7034 13.1049 16.4398 12.8876 16.1373C12.6656 15.8274 12.2379 15.5673 11.76 15.4516C11.4622 15.3791 10.9256 15.3594 10.6037 15.4091Z" fill="#FF0A6F"/>
<path fill-rule="evenodd" clip-rule="evenodd" d="M9.5579 10.8727C9.62218 10.6469 9.8309 10.4313 10.0452 10.3687C10.181 10.3289 10.463 10.3542 10.5955 10.418C10.8526 10.5423 11.0386 10.8243 10.9983 11.0279C10.949 11.2765 10.5243 11.4749 10.0362 11.4779C9.78675 11.48 9.69461 11.4479 9.59947 11.3275C9.54075 11.2525 9.51847 11.0099 9.5579 10.8727ZM10.5299 10.5067C10.658 10.5809 10.691 10.691 10.6156 10.7922C10.5638 10.862 10.403 10.9285 10.2856 10.9285C10.1099 10.9285 9.91747 10.8097 9.91747 10.7013C9.91747 10.4827 10.286 10.3653 10.5299 10.5067Z" fill="#FF0A6F"/>
</g>
<defs>
<linearGradient id="paint0_linear_31_20184" x1="2.71714" y1="12" x2="24" y2="5.82171" gradientUnits="userSpaceOnUse">
<stop stop-color="#FFF0F6"/>
<stop offset="1" stop-color="#FFB3CF"/>
</linearGradient>
<clipPath id="clip0_31_20184">
<rect width="24" height="24" fill="white"/>
</clipPath>
</defs>
</svg>

<svg xmlns="http://www.w3.org/2000/svg" width="24" height="24" fill="none" viewBox="0 0 24 24"><g clip-path="url(#a)"><path fill="url(#b)" d="M0 0h24v24H0z"/><path fill="#FF0A6F" fill-rule="evenodd" d="m8.769 8.786.001.001q.199.167.294.253l.039.038.026.03c.132.173.082.329-.143.45a1.4 1.4 0 0 1-.513.136c-.146 0-.196-.053-.196-.053l-.03-.025c-.072-.06-.155-.127-.538-.77a355 355 0 0 0-1.123-1.64c-.032-.029-.031-.028 1.062 1.828.14.308.08.46.048.538a.2.2 0 0 0-.013.046c0 .112-.032.17-.178.325-.243.257-.352.546-.43 1.144-.087.67-.334 1.144-1.02 1.954-.4.474-.465.561-.567.752-.127.24-.162.376-.176.68-.015.321.014.529.118.836.09.269.185.447.426.802.209.306.329.534.329.624 0 .07.014.07.338.001.773-.166 1.401-.457 1.755-.814.218-.222.27-.344.271-.647.001-.198-.006-.24-.063-.354-.091-.185-.259-.34-.628-.578-.483-.314-.69-.566-.746-.913-.047-.285.007-.486.274-1.018.277-.55.346-.785.392-1.34.03-.358.072-.5.18-.612.113-.12.215-.16.495-.196.457-.059.748-.17.987-.38.207-.181.294-.356.307-.619l.01-.2-.116-.127c-.42-.465-4.472-3.795-4.498-3.795-.005 0 .133.164.307.365 1.553 1.79 2.746 2.795 3.319 3.278m-2.349 6.05a.34.34 0 0 0-.113-.464c-.15-.094-.384-.05-.384.073q0 .019.009.036l.006.01a.1.1 0 0 0 .021.021l.019.013.017.009c.083.041.09.086.024.18-.067.094-.061.178.015.234.122.091.296.041.387-.112" clip-rule="evenodd"/><path fill="#FF0A6F" d="M9.124 6.117c-.023-.007-.004-.012.044-.018.17-.025.568.008.843.07.641.145 1.224.515 1.847 1.174l.166.175.236-.036c.997-.153 2.012-.032 2.86.34.234.103.602.306.648.359a1 1 0 0 1 .06.238c.063.397.031.7-.096.928a1 1 0 0 0-.044.088l-.008.024c-.014.05-.005.09.025.156.037.084.141.147.244.147.211 0 .438-.324.543-.774l.042-.18.083.09c.453.488.81 1.154.871 1.627l.016.124-.076-.112a1.4 1.4 0 0 0-.432-.431c-.304-.191-.627-.257-1.48-.3-.77-.038-1.206-.1-1.638-.234-.735-.227-1.106-.53-1.98-1.618-.387-.484-.627-.75-.866-.966-.542-.49-1.075-.745-1.756-.846a2 2 0 0 1-.152-.025"/><path fill="#FF0A6F" d="M15.942 7.221c.02-.324.065-.537.158-.733a1 1 0 0 1 .077-.14.5.5 0 0 1-.036.127c-.067.189-.078.448-.032.75.06.381.093.436.519.849.199.194.432.438.516.543l.153.19-.153-.136c-.187-.167-.618-.491-.713-.538a.2.2 0 0 0-.056-.021h-.015c-.013.003-.024.012-.041.028-.037.034-.044.086-.05.329-.007.379-.062.622-.193.865-.071.132-.082.103-.018-.045.048-.111.053-.16.052-.526 0-.737-.093-.915-.633-1.218a6 6 0 0 0-.502-.247 2 2 0 0 1-.245-.113c.015-.015.543.131.755.209.316.115.368.13.406.116.026-.009.039-.08.05-.289m-6.867-.566c-.051.57.184 1.33.564 1.827.295.385.751.684 1.089.713.22.019.287-.047.187-.185a3.4 3.4 0 0 1-.354-.615 7 7 0 0 1-.136-.517c-.159-.701-.314-.974-.674-1.181a2.3 2.3 0 0 0-.574-.203l-.086-.015zm6.406 5.522c-1.776-.679-2.401-1.268-2.401-2.261 0-.147.005-.266.011-.266.007 0 .076.048.153.107.36.274.764.39 1.88.546.656.09 1.026.164 1.367.271 1.084.341 1.755 1.034 1.915 1.977a3.1 3.1 0 0 1-.056 1.058c-.06.214-.242.6-.29.615q-.01 0-.017-.026a.4.4 0 0 1-.012-.085c-.018-.354-.207-.699-.523-.957-.36-.294-.845-.527-2.027-.98m-1.332-.075c.024.07.063.231.085.357.143.803-.302 1.452-1.166 1.704q-.096.024-.194.043l-.242.044-.16.028-.205.033c-.707.112-1.022.191-1.339.336-.225.103-.497.256-.48.272q.004.003.03-.003a1 1 0 0 0 .083-.023c.4-.133.845-.202 1.52-.236.097-.004.2-.01.295-.016l.128-.009.13-.01.057-.005.068-.006c.601-.072 1.019-.246 1.343-.559.18-.174.288-.337.375-.566.055-.145.062-.199.063-.456 0-.263-.007-.31-.066-.472a1.4 1.4 0 0 0-.287-.494l-.084-.09z"/><path fill="#FF0A6F" d="M15.048 13.83c-.236-.481-.29-.946-.16-1.38.013-.046.035-.083.049-.083q.03.006.054.022l.07.041c.108.07.326.187.907.487.725.375 1.139.666 1.42.998.246.29.398.621.471 1.025.042.228.018.779-.044 1.009a2.52 2.52 0 0 1-1.483 1.717q-.004 0 .002-.018l.008-.022c.013-.034.037-.086.066-.144.218-.432.242-.851.078-1.318-.1-.286-.306-.634-.72-1.224-.481-.686-.6-.868-.718-1.11m-4.444 1.58c-.747.114-1.567.49-2.226 1.017l-.196.158.172.025c.9.133 1.143.252 1.767.862.359.351.48.43.778.501.437.106.869-.088 1.017-.46.066-.165.057-.438-.019-.576-.18-.328-.706-.434-.96-.194-.211.2-.15.502.113.553.06.012.059.01-.015-.022-.115-.05-.165-.118-.166-.227-.001-.256.307-.4.594-.277.21.09.294.208.294.414 0 .317-.285.557-.616.517a.93.93 0 0 1-.51-.253c-.292-.313-.178-.808.23-.997.31-.145.723-.11 1.043.09.367.228.524.437.84 1.122.104.223.236.475.296.559.3.426.659.635 1.092.635.239 0 .418-.042.644-.149.168-.079.406-.23.389-.247a.7.7 0 0 0-.155.046c-.472.175-.953.163-1.232-.031-.176-.122-.317-.365-.39-.669a14 14 0 0 1-.093-.517c-.097-.587-.19-.85-.407-1.153-.222-.31-.65-.57-1.128-.685a3.7 3.7 0 0 0-1.156-.043"/><path fill="#FF0A6F" fill-rule="evenodd" d="M9.558 10.873a.78.78 0 0 1 .487-.504c.136-.04.418-.015.55.049.258.124.444.406.403.61-.049.248-.474.447-.962.45-.25.002-.341-.03-.437-.15-.058-.075-.08-.318-.041-.455m.972-.366c.128.074.161.184.086.285-.052.07-.213.136-.33.136-.176 0-.369-.118-.369-.227 0-.218.369-.336.613-.194" clip-rule="evenodd"/></g><defs><linearGradient id="b" x1="2.717" x2="24" y1="12" y2="5.822" gradientUnits="userSpaceOnUse"><stop stop-color="#FFF0F6"/><stop offset="1" stop-color="#FFB3CF"/></linearGradient><clipPath id="a"><path fill="#fff" d="M0 0h24v24H0z"/></clipPath></defs></svg>
